Adwaita++/apps/scalable/y-cutter.svg

<svg fill="none" height="128" viewBox="0 0 128 128" width="128" xmlns="http://www.w3.org/2000/svg" xmlns:xlink="http://www.w3.org/1999/xlink">
  <linearGradient id="paint0_linear" gradientUnits="userSpaceOnUse" x1="62.633" x2="62.633" y1="9" y2="71.793">
    <stop offset="0" stop-color="#e52d27"/>
    <stop offset="1" stop-color="#bf171d"/>
  </linearGradient>
  <clipPath id="clip0">
    <path d="m0 0h128v128h-128z"/>
  </clipPath>
  <g clip-path="url(#clip0)">
    <path d="m82.6583 42.1518c-.5747-1.7945-1.6961-4.0111-2.3199-4.5868-.1657-.153-.1722-.1502-.3737.1646-.2954.4616-2.8946 5.123-5.7671 10.3446-9.1488 16.6311-13.2186 23.995-13.565 24.5397-.0512.0803-.1165.1451-.1447.1448-.119-.0012-2.6531-4.8014-17.4756-33.0933-.6933-1.3232-1.3094-2.4598-1.3684-2.5256-.0912-.1015-.1487-.077-.3802.164-1.01 1.0507-2.3708 3.9086-2.7829 5.8453-.203.9526-.1949 6.3111.0103 7.1323.2389.9561 1.6965 3.8722 7.197 14.3965 7.5901 14.5221 9.1065 17.4627 9.1582 17.7645.982-.1935 6.0635-1.999 6.0635-1.999l.3355.1815 4.7533 1.8611c.0031-.0781.0165-.1498.0446-.217.0599-.1422.7298-1.4046 1.4892-2.8061 1.5567-2.8732 1.7712-3.2667 5.1246-9.3572 4.6907-8.5194 8.8941-16.2097 9.4604-17.3112.7847-1.5264 1.1388-3.3849 1.1611-6.1018.0172-2-.113-2.9577-.6201-4.5409z" fill="#060606" opacity=".1"/>
    <path d="m62.9752 72.0085c-.1189-.0012-2.6531-4.8014-17.4756-33.0933-.6932-1.3232-1.3094-2.4598-1.3683-2.5256-.0913-.1015-.1487-.077-.3803.164-1.0099 1.0507-2.3708 3.9086-2.7829 5.8453-.203.9526-.1948 6.311.0103 7.1323.2389.9561 1.6965 3.8722 7.197 14.3965 7.5901 14.5221 9.1065 17.4627 9.1583 17.7645.9819-.1935 6.0634-1.999 6.0634-1.999z" fill="#c4c4c4"/>
    <path d="m106.374 24.034s-.874-6.1526-3.548-8.8619c-3.3911-3.5569-7.2016-3.5744-8.9407-3.7842-12.4976-.9001-31.2351-.9001-31.2351-.9001h-.0349s-18.7376 0-31.2351.9001c-1.7392.2098-5.5496.2273-8.9405 3.7842-2.6743 2.7093-3.5483 8.8619-3.5483 8.8619s-.8914 7.2189-.8914 14.4464v6.7732c0 7.2276.8914 14.4464.8914 14.4464s.874 6.1526 3.5483 8.8619c3.3997 3.557 7.8568 3.4433 9.8407 3.8191 7.1402.6817 30.3523.9002 30.3523.9002s18.755-.0262 31.2526-.9351c1.7479-.2098 5.5496-.2272 8.9407-3.7842 2.674-2.7093 3.548-8.8619 3.548-8.8619s.891-7.2276.891-14.4464v-6.7732c0-7.2275-.891-14.4464-.891-14.4464zm-52.9615 29.426v-25.0824l24.1211 12.5849z" opacity=".2"/>
    <path d="m106.374 22.5463s-.874-6.1527-3.548-8.8619c-3.3911-3.557-7.2016-3.5745-8.9407-3.78423-12.4976-.90017-31.2351-.90017-31.2351-.90017h-.0349s-18.7376 0-31.2351.90017c-1.7392.20973-5.5496.22723-8.9405 3.78423-2.6743 2.7092-3.5483 8.8619-3.5483 8.8619s-.8914 7.2188-.8914 14.4464v6.7731c0 7.2276.8914 14.4464.8914 14.4464s.874 6.1527 3.5483 8.8619c3.3997 3.557 7.8568 3.4434 9.8407 3.8192 7.1402.6817 30.3523.9002 30.3523.9002s18.755-.0263 31.2526-.9352c1.7479-.2097 5.5496-.2272 8.9407-3.7842 2.674-2.7092 3.548-8.8619 3.548-8.8619s.891-7.2275.891-14.4464v-6.7731c0-7.2276-.891-14.4464-.891-14.4464zm-52.9615 29.4259v-25.0824l24.1211 12.5849z" fill="url(#paint0_linear)"/>
    <path d="m53.4125 51.9722 24.1211-12.4975-24.1211-12.5849z" fill="#fff"/>
    <path d="m53.4125 26.8898 21.1497 14.1231 2.9714-1.5382z" fill="#420000" opacity=".12"/>
    <path d="m92.1184 104.311c-1.6715-5.0902-6.376-8.4976-11.4823-8.3153-2.7786.0991-4.5738.7056-6.9384 2.3417-.6672.4615-1.229.8248-1.244.8074-.0174-.0173-.1786-.6164-.3613-1.3318-.4068-1.5984-1.7662-5.8397-2.4019-7.4941-.5956-1.5505-1.7069-3.874-2.6846-5.6117-.7796-1.3837-1.0203-1.8908-1.0074-2.2212-4.7556-4.4912-8.3731-1.1048-11.1523-.0436.001.0056.0109.0282.0109.0321-.0018.1902-.2761.7103-1.0223 1.9361-1.0097 1.6585-2.4634 4.6591-3.2808 6.7714-.8547 2.2085-2.4013 6.9962-2.4058 7.4478-.0031.3252-.1225.3162-.6416-.0491-.2686-.189-.7824-.5508-1.1424-.8042-3.4974-2.4612-7.996-2.8933-11.7718-1.1294-2.5605 1.1961-4.5013 3.1057-5.7541 5.6609-.8819 1.799-1.1269 3.096-1.085 5.743.0233 1.453.0513 1.721.2407 2.381.7414 2.572 2.6193 5.324 4.5225 6.627 1.3609.932 2.9945 1.631 4.7038 2.015 1.1495.259 3.0094.295 4.2193.083 3.9215-.689 6.7977-2.822 8.9041-6.603.8095-1.452.9636-2.014 1.7195-6.282 1.0382-5.863 2.0495-9.8861 2.9974-11.9184.8071-1.7307 2.5822-3.7589 4.3062-4.9221.4438-.2995.5656-.342.9697-.338.4227.0041.5178.044 1.1271.4727.8744.615 2.3648 2.1409 3.0239 3.0954.6519.9443 1.2396 2.1635 1.6222 3.3755.6754 2.1312 1.4488 5.8639 2.2405 10.8219.5901 3.693.819 4.572 1.5521 5.964 1.2969 2.462 2.815 4.107 4.8842 5.291 3.5716 2.043 7.694 2.143 11.3921.277 3.2955-1.664 5.7369-4.941 6.2368-8.372.1735-1.192.2014-3.397.0543-4.287-.0643-.388-.2228-1.027-.3514-1.421zm-4.8471 1.62c1.0867 3.603-.9533 7.405-4.5565 8.492-3.6033 1.087-7.4053-.953-8.492-4.556-1.0868-3.604.9532-7.406 4.5564-8.492 3.6033-1.087 7.4053.953 8.4921 4.556zm-41.2506-.498c1.0868 3.603-.9532 7.405-4.5564 8.492-3.6033 1.086-7.4053-.954-8.4921-4.557-1.0867-3.603.9533-7.405 4.5565-8.492 3.6032-1.0867 7.4052.953 8.492 4.557z" fill="#060606" opacity=".1"/>
    <path d="m61.0481 82.673c.3951 1.3099 1.7772 2.0514 3.087 1.6564 1.3099-.3951 2.0515-1.7772 1.6564-3.0871-.3951-1.3098-1.7772-2.0514-3.087-1.6563-1.3099.395-2.0515 1.7771-1.6564 3.087z" fill="#060606" opacity=".1"/>
    <path d="m85.1457 41.4016c-.5747-1.7945-1.6962-4.0111-2.3199-4.5868-.1658-.153-.1723-.1502-.3738.1646-.2954.4616-2.8946 5.1229-5.767 10.3446-9.1489 16.6311-13.2186 23.995-13.5651 24.5397-.0511.0803-.1165.1451-.1447.1448l-5.6415 9.6837c.9819-.1935 6.0635-1.999 6.0635-1.999l.3354.1815 4.7534 1.8611c.003-.0781.0164-.1498.0445-.2169.0597-.1423.7298-1.4047 1.4892-2.8062 1.5567-2.8732 1.7711-3.2667 5.1245-9.3572 4.6907-8.5194 8.8941-16.2097 9.4604-17.3112.7847-1.5264 1.1388-3.3848 1.1612-6.1018.0171-1.9999-.113-2.9576-.6201-4.5409z" fill="#c4c4c4"/>
    <path d="m94.6058 103.561c-1.6715-5.0905-6.3761-8.4978-11.4823-8.3156-2.7787.0992-4.5739.7057-6.9385 2.3417-.6671.4616-1.2289.8249-1.244.8074-.0169-.0172-.1793-.6161-.3612-1.3317-.4068-1.5984-1.7664-5.8396-2.4018-7.4941-.5956-1.5506-1.7069-3.874-2.6846-5.6117-.7796-1.3837-1.0203-1.8908-1.0074-2.2213-4.7556-4.4911-8.3731-1.1048-11.1523-.0435.001.0055.011.0281.0109.032-.0018.1903-.2761.7104-1.0223 1.9362-1.0097 1.6585-2.4634 4.6591-3.2808 6.7714-.8547 2.2085-2.4014 6.9962-2.4058 7.4478-.0031.3252-.1225.3161-.6416-.0491-.2687-.189-.7824-.5509-1.1424-.8043-3.4975-2.4612-7.996-2.8933-11.7718-1.1294-2.5605 1.1962-4.5013 3.1057-5.7541 5.6612-.8819 1.799-1.127 3.096-1.085 5.742.0233 1.454.0513 1.722.2407 2.382.7413 2.572 2.6193 5.324 4.5225 6.627 1.3609.932 2.9945 1.631 4.7038 2.015 1.1495.258 3.0094.295 4.2193.082 3.9215-.688 6.7977-2.822 8.904-6.602.8096-1.453.9637-2.014 1.7196-6.283 1.0382-5.8624 2.0495-9.8853 2.9974-11.9177.8071-1.7307 2.5822-3.7589 4.3061-4.9221.4439-.2995.5657-.3419.9698-.338.4227.0041.5178.0441 1.1271.4727.8744.615 2.3648 2.1409 3.0239 3.0955.6519.9442 1.2395 2.1634 1.6222 3.3754.6752 2.1313 1.4488 5.8632 2.2404 10.8222.5902 3.693.819 4.571 1.5522 5.964 1.2969 2.462 2.815 4.106 4.8842 5.29 3.5716 2.044 7.6939 2.144 11.3921.277 3.2955-1.663 5.7369-4.94 6.2368-8.372.1735-1.191.2014-3.397.0543-4.286-.0643-.388-.2227-1.027-.3514-1.421zm-4.8472 1.62c1.0868 3.603-.9532 7.405-4.5565 8.492-3.6032 1.087-7.4052-.953-8.492-4.557-1.0868-3.603.9532-7.405 4.5565-8.492 3.6032-1.0864 7.4052.954 8.492 4.557zm-41.2505-.499c1.0867 3.604-.9533 7.406-4.5565 8.492-3.6032 1.087-7.4052-.953-8.492-4.556s.9532-7.405 4.5565-8.492c3.6032-1.0869 7.4052.953 8.492 4.556z" fill="#da1636"/>
    <path d="m60.9573 80.7568c.395 1.3098 1.7771 2.0514 3.087 1.6564 1.3099-.3951 2.0514-1.7772 1.6564-3.0871-.3951-1.3098-1.7772-2.0514-3.0871-1.6563-1.3098.395-2.0514 1.7771-1.6563 3.087z" fill="#4c4c4c"/>
  </g>
</svg>

<svg xmlns="http://www.w3.org/2000/svg" fill="none" width="128" height="128" viewBox="0 0 128 128">
 <g clip-path="url(#clip0)">
  <path fill="#060606" opacity=".1" d="M82.6583 42.1518C82.0836 40.3573 80.9622 38.1407 80.3384 37.565C80.1727 37.412 80.1662 37.4148 79.9647 37.7296C79.6693 38.1912 77.0701 42.8526 74.1976 48.0742C65.0488 64.7053 60.979 72.0692 60.6326 72.6139C60.5814 72.6942 60.5161 72.759 60.4879 72.7587C60.3689 72.7575 57.8348 67.9573 43.0123 39.6654C42.319 38.3422 41.7029 37.2056 41.6439 37.1398C41.5527 37.0383 41.4952 37.0628 41.2637 37.3038C40.2537 38.3545 38.8929 41.2124 38.4808 43.1491C38.2778 44.1017 38.2859 49.4602 38.4911 50.2814C38.73 51.2375 40.1876 54.1536 45.6881 64.6779C53.2782 79.2 54.7946 82.1406 54.8463 82.4424C55.8283 82.2489 60.9098 80.4434 60.9098 80.4434L61.2453 80.6249L65.9986 82.486C66.0017 82.4079 66.0151 82.3362 66.0432 82.269C66.1031 82.1268 66.773 80.8644 67.5324 79.4629C69.0891 76.5897 69.3036 76.1962 72.657 70.1057C77.3477 61.5863 81.5511 53.896 82.1174 52.7945C82.9021 51.2681 83.2562 49.4096 83.2785 46.6927C83.2957 44.6927 83.1655 43.735 82.6584 42.1518L82.6583 42.1518Z"/>
  <path fill="#C4C4C4" d="M62.9752 72.0085C62.8563 72.0073 60.3221 67.2071 45.4996 38.9152C44.8064 37.592 44.1902 36.4554 44.1313 36.3896C44.04 36.2881 43.9826 36.3126 43.751 36.5536C42.7411 37.6043 41.3802 40.4622 40.9681 42.3989C40.7651 43.3515 40.7733 48.7099 40.9784 49.5312C41.2173 50.4873 42.6749 53.4034 48.1754 63.9277C55.7655 78.4498 57.2819 81.3904 57.3337 81.6922C58.3156 81.4987 63.3971 79.6932 63.3971 79.6932L62.9752 72.0085Z"/>
  <path opacity=".2" d="M106.374 24.034C106.374 24.034 105.5 17.8814 102.826 15.1721C99.4349 11.6152 95.6244 11.5977 93.8853 11.3879C81.3877 10.4878 62.6502 10.4878 62.6502 10.4878H62.6153C62.6153 10.4878 43.8777 10.4878 31.3802 11.3879C29.641 11.5977 25.8306 11.6152 22.4397 15.1721C19.7654 17.8814 18.8914 24.034 18.8914 24.034C18.8914 24.034 18 31.2529 18 38.4804V45.2536C18 52.4812 18.8914 59.7 18.8914 59.7C18.8914 59.7 19.7654 65.8526 22.4397 68.5619C25.8394 72.1189 30.2965 72.0052 32.2804 72.381C39.4206 73.0627 62.6327 73.2812 62.6327 73.2812C62.6327 73.2812 81.3877 73.255 93.8853 72.3461C95.6332 72.1363 99.4349 72.1189 102.826 68.5619C105.5 65.8526 106.374 59.7 106.374 59.7C106.374 59.7 107.265 52.4724 107.265 45.2536V38.4804C107.265 31.2529 106.374 24.034 106.374 24.034V24.034ZM53.4125 53.46V28.3776L77.5336 40.9625L53.4125 53.46Z"/>
  <path fill="url(#paint0_linear)" d="M106.374 22.5463C106.374 22.5463 105.5 16.3936 102.826 13.6844C99.4349 10.1274 95.6244 10.1099 93.8853 9.90017C81.3877 9 62.6502 9 62.6502 9H62.6153C62.6153 9 43.8777 9 31.3802 9.90017C29.641 10.1099 25.8306 10.1274 22.4397 13.6844C19.7654 16.3936 18.8914 22.5463 18.8914 22.5463C18.8914 22.5463 18 29.7651 18 36.9927V43.7658C18 50.9934 18.8914 58.2122 18.8914 58.2122C18.8914 58.2122 19.7654 64.3649 22.4397 67.0741C25.8394 70.6311 30.2965 70.5175 32.2804 70.8933C39.4206 71.575 62.6327 71.7935 62.6327 71.7935C62.6327 71.7935 81.3877 71.7672 93.8853 70.8583C95.6332 70.6486 99.4349 70.6311 102.826 67.0741C105.5 64.3649 106.374 58.2122 106.374 58.2122C106.374 58.2122 107.265 50.9847 107.265 43.7658V36.9927C107.265 29.7651 106.374 22.5463 106.374 22.5463V22.5463ZM53.4125 51.9722V26.8898L77.5336 39.4747L53.4125 51.9722Z"/>
  <path fill="#fff" d="M53.4125 51.9722L77.5336 39.4747L53.4125 26.8898V51.9722Z"/>
  <path fill="#420000" opacity=".12" d="M53.4125 26.8898L74.5622 41.0129L77.5336 39.4747L53.4125 26.8898Z"/>
  <path fill="#060606" opacity=".1" d="M92.1184 104.311C90.4469 99.2208 85.7424 95.8134 80.6361 95.9957C77.8575 96.0948 76.0623 96.7013 73.6977 98.3374C73.0305 98.7989 72.4687 99.1622 72.4537 99.1448C72.4363 99.1275 72.2751 98.5284 72.0924 97.813C71.6856 96.2146 70.3262 91.9733 69.6905 90.3189C69.0949 88.7684 67.9836 86.4449 67.0059 84.7072C66.2263 83.3235 65.9856 82.8164 65.9985 82.486C61.2429 77.9948 57.6254 81.3812 54.8462 82.4424C54.8472 82.448 54.8571 82.4706 54.8571 82.4745C54.8553 82.6647 54.581 83.1848 53.8348 84.4106C52.8251 86.0691 51.3714 89.0697 50.554 91.182C49.6993 93.3905 48.1527 98.1782 48.1482 98.6298C48.1451 98.955 48.0257 98.946 47.5066 98.5807C47.238 98.3917 46.7242 98.0299 46.3642 97.7765C42.8668 95.3153 38.3682 94.8832 34.5924 96.6471C32.0319 97.8432 30.0911 99.7528 28.8383 102.308C27.9564 104.107 27.7114 105.404 27.7533 108.051C27.7766 109.504 27.8046 109.772 27.994 110.432C28.7354 113.004 30.6133 115.756 32.5165 117.059C33.8774 117.991 35.511 118.69 37.2203 119.074C38.3698 119.333 40.2297 119.369 41.4396 119.157C45.3611 118.468 48.2373 116.335 50.3437 112.554C51.1532 111.102 51.3073 110.54 52.0632 106.272C53.1014 100.409 54.1127 96.3859 55.0606 94.3536C55.8677 92.6229 57.6428 90.5947 59.3668 89.4315C59.8106 89.132 59.9324 89.0895 60.3365 89.0935C60.7592 89.0976 60.8543 89.1375 61.4636 89.5662C62.338 90.1812 63.8284 91.7071 64.4875 92.6616C65.1394 93.6059 65.7271 94.8251 66.1097 96.0371C66.7851 98.1683 67.5585 101.901 68.3502 106.859C68.9403 110.552 69.1692 111.431 69.9023 112.823C71.1992 115.285 72.7173 116.93 74.7865 118.114C78.3581 120.157 82.4805 120.257 86.1786 118.391C89.4741 116.727 91.9155 113.45 92.4154 110.019C92.5889 108.827 92.6168 106.622 92.4697 105.732C92.4054 105.344 92.2469 104.705 92.1183 104.311L92.1184 104.311ZM87.2713 105.931C88.358 109.534 86.318 113.336 82.7148 114.423C79.1115 115.51 75.3095 113.47 74.2228 109.867C73.136 106.263 75.176 102.461 78.7792 101.375C82.3825 100.288 86.1845 102.328 87.2713 105.931ZM46.0207 105.433C47.1075 109.036 45.0675 112.838 41.4643 113.925C37.861 115.011 34.059 112.971 32.9722 109.368C31.8855 105.765 33.9255 101.963 37.5287 100.876C41.1319 99.7893 44.9339 101.829 46.0207 105.433V105.433Z"/>
  <path fill="#060606" opacity=".1" d="M61.0481 82.673C61.4432 83.9829 62.8253 84.7244 64.1351 84.3294C65.445 83.9343 66.1866 82.5522 65.7915 81.2423C65.3964 79.9325 64.0143 79.1909 62.7045 79.586C61.3946 79.981 60.653 81.3631 61.0481 82.673Z"/>
  <path fill="#C4C4C4" d="M85.1457 41.4016C84.571 39.6071 83.4495 37.3905 82.8258 36.8148C82.66 36.6618 82.6535 36.6646 82.452 36.9794C82.1566 37.441 79.5574 42.1023 76.685 47.324C67.5361 63.9551 63.4664 71.319 63.1199 71.8637C63.0688 71.944 63.0034 72.0088 62.9752 72.0085L57.3337 81.6922C58.3156 81.4987 63.3972 79.6932 63.3972 79.6932L63.7326 79.8747L68.486 81.7358C68.489 81.6577 68.5024 81.586 68.5305 81.5189C68.5902 81.3766 69.2603 80.1142 70.0197 78.7127C71.5764 75.8395 71.7908 75.446 75.1442 69.3555C79.8349 60.8361 84.0383 53.1458 84.6046 52.0443C85.3893 50.5179 85.7434 48.6595 85.7658 45.9425C85.7829 43.9426 85.6528 42.9849 85.1457 41.4016Z"/>
  <path fill="#DA1636" d="M94.6058 103.561C92.9343 98.4705 88.2297 95.0632 83.1235 95.2454C80.3448 95.3446 78.5496 95.9511 76.185 97.5871C75.5179 98.0487 74.9561 98.412 74.941 98.3945C74.9241 98.3773 74.7617 97.7784 74.5798 97.0628C74.173 95.4644 72.8134 91.2232 72.178 89.5687C71.5824 88.0181 70.4711 85.6947 69.4934 83.957C68.7138 82.5733 68.4731 82.0662 68.486 81.7357C63.7304 77.2446 60.1129 80.6309 57.3337 81.6922C57.3347 81.6977 57.3447 81.7203 57.3446 81.7242C57.3428 81.9145 57.0685 82.4346 56.3223 83.6604C55.3126 85.3189 53.8589 88.3195 53.0415 90.4318C52.1868 92.6403 50.6401 97.428 50.6357 97.8796C50.6326 98.2048 50.5132 98.1957 49.9941 97.8305C49.7254 97.6415 49.2117 97.2796 48.8517 97.0262C45.3542 94.565 40.8557 94.1329 37.0799 95.8968C34.5194 97.093 32.5786 99.0025 31.3258 101.558C30.4439 103.357 30.1988 104.654 30.2408 107.3C30.2641 108.754 30.2921 109.022 30.4815 109.682C31.2228 112.254 33.1008 115.006 35.004 116.309C36.3649 117.241 37.9985 117.94 39.7078 118.324C40.8573 118.582 42.7172 118.619 43.9271 118.406C47.8486 117.718 50.7248 115.584 52.8311 111.804C53.6407 110.351 53.7948 109.79 54.5507 105.521C55.5889 99.6586 56.6002 95.6357 57.5481 93.6033C58.3552 91.8726 60.1303 89.8444 61.8542 88.6812C62.2981 88.3817 62.4199 88.3393 62.824 88.3432C63.2467 88.3473 63.3418 88.3873 63.9511 88.8159C64.8255 89.4309 66.3159 90.9568 66.975 91.9114C67.6269 92.8556 68.2145 94.0748 68.5972 95.2868C69.2724 97.4181 70.046 101.15 70.8376 106.109C71.4278 109.802 71.6566 110.68 72.3898 112.073C73.6867 114.535 75.2048 116.179 77.274 117.363C80.8456 119.407 84.9679 119.507 88.6661 117.64C91.9616 115.977 94.403 112.7 94.9029 109.268C95.0764 108.077 95.1043 105.871 94.9572 104.982C94.8929 104.594 94.7345 103.955 94.6058 103.561L94.6058 103.561ZM89.7586 105.181C90.8454 108.784 88.8054 112.586 85.2021 113.673C81.5989 114.76 77.7969 112.72 76.7101 109.116C75.6233 105.513 77.6633 101.711 81.2666 100.624C84.8698 99.5376 88.6718 101.578 89.7586 105.181ZM48.5081 104.682C49.5948 108.286 47.5548 112.088 43.9516 113.174C40.3484 114.261 36.5464 112.221 35.4596 108.618C34.3728 105.015 36.4128 101.213 40.0161 100.126C43.6193 99.0391 47.4213 101.079 48.5081 104.682V104.682Z"/>
  <path fill="#4C4C4C" d="M60.9573 80.7568C61.3523 82.0666 62.7344 82.8082 64.0443 82.4132C65.3542 82.0181 66.0957 80.636 65.7007 79.3261C65.3056 78.0163 63.9235 77.2747 62.6136 77.6698C61.3038 78.0648 60.5622 79.4469 60.9573 80.7568Z"/>
 </g>
 <defs>
  <linearGradient id="paint0_linear" x1="62.633" x2="62.633" y1="9" y2="71.793" gradientUnits="userSpaceOnUse">
   <stop stop-color="#E52D27"/>
   <stop offset="1" stop-color="#BF171D"/>
  </linearGradient>
  <clipPath id="clip0">
   <rect fill="#fff" width="128" height="128"/>
  </clipPath>
 </defs>
</svg>
